X: 4431
T: DE BERIOT'S WALTZ
R: Waltz
%R: waltz
B: James Kerr "Merry Melodies" v.4 p.48 #431
Z: 2016 John Chambers <jc:trillian.mit.edu>
N: Removed redundant final rest in last bar.
M: 3/4
L: 1/4
K: A
e |\
(e2a) | (f2a) | (e2c) | (A2f) |\
[1 (e2d) | (B2f) | (e2c) | A2e :|\
[2 e2E | (c2B) | A3- | Az |: c |\
(c2^e) | (g2c) |
(c2f) | (a2c) |\
(^d2f) | (a2g) | g3- | gfe |\
a3 | (g2f) | (e2c) | (A2f) |\
e2E | c2B | A3- | Az :|

%%sep 1 1 500
%%sep 1 1 500

